!!!SOCIAL_FUNCTION:	songs with legends of whaling
!!!PDT:	1939
!!!OTL: No_3_Song_of_the_Married_Man_Who_Became_a_Whaler.krn
!!!LANG: Non-Tone
!!!LING_GROUP: Wakashan
!!!REG: Pacific Northwest
**kern	**kern
*staff2	*staff1
=1-	=1-
*clefF4	*clefF4
*k[f#]	*k[f#]
*M3/4	*M3/4
2.r	2r
.	8F#\L
.	16B\L
.	16A\JJ
=2	=2
12r	2A\
12GG/L	.
12GG/J	.
12r	.
12GG/L	.
12GG/J	.
12r	8G\
12GG/L	.
.	8r
12GG/J	.
=3	=3
12r	4A\
12GG/L	.
12GG/J	.
12r	8A\L
12GG/L	.
.	8A\J
12GG/J	.
12r	8G\L
12GG/L	.
.	16G\Jk
12GG/J	.
.	16r
=4||	=4||
*M2/4	*M2/4
12r	2G\
12GG/L	.
12GG/J	.
12r	.
12GG/L	.
12GG/J	.
=5||	=5||
*M3/4	*M3/4
12r	4D\
12GG/L	.
12GG/J	.
12r	8D\
12GG/L	.
.	8r
12GG/J	.
12r	8G\L
12GG/L	.
.	16B\L
12GG/J	.
.	16G\JJ
=6	=6
12r	4.G\
12GG/L	.
12GG/J	.
12r	.
12GG/L	.
.	8r
12GG/J	.
12r	8D\
12GG/L	.
.	8r
12GG/J	.
=7	=7
12r	4G\
12GG/L	.
12GG/J	.
12r	8G\L
12GG/L	.
.	16G\Jk
12GG/J	.
.	16r
12r	8G\L
12GG/L	.
.	16G\Jk
12GG/J	.
.	16r
=8||	=8||
*M2/4	*M2/4
12r	4G\
12GG/L	.
12GG/J	.
12r	4A\
12GG/L	.
12GG/J	.
=9	=9
12r	8A\
12GG/L	.
.	8r
12GG/J	.
12r	8G\L
12GG/L	.
.	16B\L
12GG/J	.
.	16A\JJ
=10||	=10||
*M3/4	*M3/4
12r	4.A\
12GG/L	.
12GG/J	.
12r	.
12GG/L	.
.	8r
12GG/J	.
12r	8F#\
12GG/L	.
.	8r
12GG/J	.
=11	=11
12r	4A\
12GG/L	.
12GG/J	.
12r	8A\L
12GG/L	.
.	16A\L
12GG/J	.
.	16F#\JJ
12r	8F#\L
12GG/L	.
.	16F#\Jk
12GG/J	.
.	16r
=12||	=12||
*M2/4	*M2/4
12r	2F#\
12GG/L	.
12GG/J	.
12r	.
12GG/L	.
12GG/J	.
=13||	=13||
*M3/4	*M3/4
12r	8D\
12GG/L	.
.	8r
12GG/J	.
12r	8D\
12GG/L	.
.	8r
12GG/J	.
12r	8F#\L
12GG/L	.
.	16A\L
12GG/J	.
.	16F#\JJ
=14	=14
12r	2F#\
12GG/L	.
12GG/J	.
12r	.
12GG/L	.
12GG/J	.
12r	8D\
12GG/L	.
.	8r
12GG/J	.
=15	=15
12r	4F#\
12GG/L	.
12GG/J	.
12r	8F#\L
12GG/L	.
.	16F#\Jk
12GG/J	.
.	16r
12r	8F#\L
12GG/L	.
.	16F#\Jk
12GG/J	.
.	16r
=16||	=16||
*M2/4	*M2/4
12r	4F#\
12GG/L	.
12GG/J	.
12r	8G\
12GG/L	.
.	8r
12GG/J	.
=17	=17
12r	2G\
12GG/L	.
12GG/J	.
12r	.
12GG/L	.
12GG/J	.
=18	=18
12r	2G\
12GG/L	.
12GG/J	.
12r	.
12GG/L	.
12GG/J	.
==	==
*-	*-
